resources/haticons/SVG/corporate_fare.svg

<!-- Generated by IcoMoon.io -->
<svg version="1.1" xmlns="http://www.w3.org/2000/svg" width="24" height="24" viewBox="0 0 24 24">
<title>corporate_fare</title>
<path d="M12 6.984v-3.984h-9.984v18h19.969v-14.016h-9.984zM9.984 18.984h-6v-1.969h6v1.969zM9.984 15h-6v-2.016h6v2.016zM9.984 11.016h-6v-2.016h6v2.016zM9.984 6.984h-6v-1.969h6v1.969zM20.016 18.984h-8.016v-9.984h8.016v9.984zM18 11.016h-3.984v1.969h3.984v-1.969zM18 15h-3.984v2.016h3.984v-2.016z"></path>
</svg>

<svg xmlns="http://www.w3.org/2000/svg" width="24" height="24"><path d="M12 6.984V3H2.016v18h19.969V6.984h-9.984zm-2.016 12h-6v-1.969h6v1.969zm0-3.984h-6v-2.016h6V15zm0-3.984h-6V9h6v2.016zm0-4.032h-6V5.015h6v1.969zm10.032 12H12V9h8.016v9.984zM18 11.016h-3.984v1.969H18v-1.969zM18 15h-3.984v2.016H18V15z"/></svg>
